Icons/CD/Slices/Icon SVG.svg

﻿<?xml version="1.0" encoding="utf-8"?>
<!DOCTYPE svg PUBLIC "-//W3C//DTD SVG 1.1//EN" "http://www.w3.org/Graphics/SVG/1.1/DTD/svg11.dtd">
<svg xmlns="http://www.w3.org/2000/svg" xmlns:xlink="http://www.w3.org/1999/xlink" version="1.1" baseProfile="full" width="256" height="256" viewBox="0 0 256.00 256.00" enable-background="new 0 0 256.00 256.00" xml:space="preserve">
	<path fill="#E6003C" fill-opacity="1" stroke-width="0.2" stroke-linejoin="round" d="M 35.678,6.61214e-005L 256.086,0.0299123L 220.053,256L -0.313558,256.412L 35.678,6.61214e-005 Z "/>
	<g>
		<path fill="#FFFFFF" fill-opacity="1" stroke-width="1.00014" stroke-linejoin="round" d="M 48.6558,127.98C 46.4081,141.735 47.6446,153.172 52.3654,162.293C 57.0861,171.414 67.5445,176.147 83.7406,176.492C 89.2674,176.512 94.7855,176.135 100.295,175.362C 105.804,174.588 111.843,173.3 118.409,171.498L 116.468,155.899C 108.988,157.575 103.181,158.693 99.0469,159.252C 94.9126,159.81 91.1511,160.068 87.7622,160.025C 79.1528,159.936 73.4555,157.088 70.6705,151.481C 67.8854,145.874 67.2498,138.04 68.7637,127.98C 70.0407,118.585 72.8257,111.176 77.1189,105.753C 81.412,100.331 87.872,97.5635 96.4987,97.4519C 99.9714,97.4088 103.704,97.666 107.697,98.2236C 111.689,98.7812 117.156,99.8979 124.095,101.574L 130.613,86.0728C 124.528,84.2209 118.843,82.9044 113.556,82.1234C 108.269,81.3424 102.86,80.963 97.3308,80.9853C 81.0365,81.293 69.2491,85.8247 61.9686,94.5804C 54.6882,103.336 50.2506,114.469 48.6558,127.98 Z "/>
		<path fill="#FFFFFF" fill-opacity="1" stroke-width="1.00014" stroke-linejoin="round" d="M 161.116,175.105C 177.096,174.809 188.75,170.289 196.08,161.545C 203.409,152.801 207.887,141.614 209.514,127.983C 211.713,114.535 210.366,103.634 205.475,95.2797C 200.584,86.9253 190.189,82.6228 174.29,82.372L 139.067,82.372L 125.893,175.105L 161.116,175.105 Z M 147.387,158.639L 155.847,98.8386L 171.933,98.8386C 180.661,98.8931 186.156,101.431 188.418,106.451C 190.68,111.472 191.009,118.649 189.406,127.983C 188.291,137.38 185.876,144.809 182.16,150.27C 178.445,155.732 172.216,158.521 163.474,158.639L 147.387,158.639 Z "/>
	</g>
</svg>

﻿<svg xmlns="http://www.w3.org/2000/svg" viewBox="0 0 256.00 256.00" enable-background="new 0 0 256.00 256.00"><g stroke-linejoin="round"><path fill="#e6003c" stroke-width=".2" d="m35.678 0l220.41.03-36.03 255.97-220.37.412 35.992-256.41"/><g fill="#fff"><path d="m48.656 127.98c-2.248 13.755-1.011 25.19 3.71 34.31 4.721 9.121 15.179 13.854 31.375 14.199 5.527.02 11.04-.357 16.554-1.13 5.509-.774 11.548-2.062 18.11-3.864l-1.941-15.599c-7.48 1.676-13.287 2.794-17.421 3.353-4.134.558-7.896.816-11.285.773-8.609-.089-14.307-2.937-17.09-8.544-2.785-5.607-3.421-13.441-1.907-23.501 1.277-9.395 4.062-16.804 8.355-22.23 4.293-5.422 10.753-8.189 19.38-8.301 3.473-.043 7.205.214 11.198.772 3.992.558 9.459 1.674 16.398 3.35l6.518-15.501c-6.085-1.852-11.77-3.168-17.06-3.949-5.287-.781-10.696-1.16-16.225-1.138-16.294.308-28.08 4.839-35.36 13.595-7.28 8.756-11.718 19.889-13.313 33.4"/><path d="m161.12 175.1c15.98-.296 27.634-4.816 34.964-13.56 7.329-8.744 11.807-19.931 13.434-33.562 2.199-13.448.852-24.349-4.04-32.703-4.891-8.354-15.286-12.657-31.19-12.908h-35.22l-13.174 92.73h35.22m-13.729-16.466l8.46-59.8h16.09c8.728.055 14.223 2.592 16.485 7.612 2.262 5.02 2.591 12.198.988 21.532-1.115 9.397-3.53 16.826-7.246 22.287-3.715 5.462-9.944 8.251-18.686 8.369h-16.09Z"/></g></g></svg>
